img/sm/zepeto.svg

<?xml version="1.0" encoding="UTF-8"?>
<svg width="275px" height="80px" viewBox="0 0 275 80" version="1.1" xmlns="http://www.w3.org/2000/svg" xmlns:xlink="http://www.w3.org/1999/xlink">
    <!-- Generator: Sketch 54 (76480) - https://sketchapp.com -->
    <title>形状结合</title>
    <desc>Created with Sketch.</desc>
    <g id="页面1" stroke="none" stroke-width="1" fill="none" fill-rule="evenodd">
        <path d="M8.9735982,-3.62544108e-16 L266.026402,3.62544108e-16 C269.146717,-2.10648567e-16 270.278219,0.324889639 271.41896,0.934964463 C272.559701,1.54503929 273.454961,2.4402993 274.065036,3.58104004 C274.67511,4.72178078 275,5.85328261 275,8.9735982 L275,71.0264018 C275,74.1467174 274.67511,75.2782192 274.065036,76.41896 C273.454961,77.5597007 272.559701,78.4549607 271.41896,79.0650355 C270.278219,79.6751104 269.146717,80 266.026402,80 L8.9735982,80 C5.85328261,80 4.72178078,79.6751104 3.58104004,79.0650355 C2.4402993,78.4549607 1.54503929,77.5597007 0.934964463,76.41896 C0.324889639,75.2782192 1.40432378e-16,74.1467174 -2.41696072e-16,71.0264018 L2.41696072e-16,8.9735982 C-1.40432378e-16,5.85328261 0.324889639,4.72178078 0.934964463,3.58104004 C1.54503929,2.4402993 2.4402993,1.54503929 3.58104004,0.934964463 C4.72178078,0.324889639 5.85328261,2.10648567e-16 8.9735982,-3.62544108e-16 Z M16,58.5830078 L16,64.9619141 L48.2758789,64.9619141 L48.2758789,57.7163086 L25.2910156,57.7163086 L48.2758789,20.1708984 L48.2758789,14.4160156 L16.9013672,14.4160156 L16.9013672,21.2456055 L38.9155273,21.2456055 L16,58.5830078 Z M58.5028319,14.4160156 L58.5028319,64.9619141 L90.7787108,64.9619141 L90.7787108,57.7163086 L66.164453,57.7163086 L66.164453,42.878418 L87.1732421,42.878418 L87.1732421,36.0834961 L66.164453,36.0834961 L66.164453,21.6616211 L90.7787108,21.6616211 L90.7787108,14.4160156 L58.5028319,14.4160156 Z M108.251269,37.9902344 L108.251269,21.6616211 L119.310351,21.6616211 C121.39044,21.6153969 123.216268,22.0891877 124.78789,23.0830078 C125.827935,23.6839223 126.636846,24.5043893 127.214648,25.5444336 C127.769339,26.7000383 128.046679,28.1214108 128.046679,29.8085938 C128.046679,31.8424581 127.364883,33.6913979 126.001269,35.3554688 C124.568319,37.0657638 122.430483,37.9440102 119.587695,37.9902344 L108.251269,37.9902344 Z M100.589648,14.4160156 L100.589648,64.9619141 L108.251269,64.9619141 L108.251269,45.2358398 L119.899707,45.2358398 C125.099928,45.1433915 129.052037,43.4793456 131.756152,40.2436523 C134.390931,37.1697437 135.708301,33.7607609 135.708301,30.0166016 C135.708301,27.2431502 135.188286,24.8395284 134.148242,22.8056641 C133.154422,20.7024634 131.860164,19.0846411 130.265429,17.9521484 C128.370238,16.4498623 126.498186,15.4560571 124.649219,14.9707031 C122.800251,14.6009096 120.881976,14.4160156 118.894336,14.4160156 L100.589648,14.4160156 Z M145.276562,14.4160156 L145.276562,64.9619141 L177.552441,64.9619141 L177.552441,57.7163086 L152.938183,57.7163086 L152.938183,42.878418 L173.946972,42.878418 L173.946972,36.0834961 L152.938183,36.0834961 L152.938183,21.6616211 L177.552441,21.6616211 L177.552441,14.4160156 L145.276562,14.4160156 Z M195.926367,21.2456055 L195.926367,64.9619141 L203.622656,64.9619141 L203.622656,21.2456055 L217.455175,21.2456055 L217.455175,14.4160156 L182.093847,14.4160156 L182.093847,21.2456055 L195.926367,21.2456055 Z M223.72998,39.6889648 C223.72998,45.4669885 223.903318,49.3728739 224.25,51.4067383 C224.434896,52.4930067 224.666014,53.3943649 224.943359,54.1108398 C225.243816,54.8042027 225.578936,55.5322227 225.94873,56.2949219 C227.173671,58.6292434 229.13817,60.686189 231.842285,62.4658203 C234.500176,64.3147879 237.816711,65.2854813 241.791992,65.3779297 C245.813496,65.2854813 249.1647,64.3147879 251.845703,62.4658203 C254.503594,60.686189 256.421869,58.6292434 257.600585,56.2949219 C258.455733,55.0699809 259.045083,53.4406026 259.368652,51.4067383 C259.669109,49.3728739 259.819335,45.4669885 259.819335,39.6889648 C259.819335,33.8184928 259.669109,29.8894956 259.368652,27.9018555 C259.045083,25.9142153 258.455733,24.3079488 257.600585,23.0830078 C256.421869,20.7486862 254.503594,18.6686289 251.845703,16.8427734 C249.1647,14.9938059 245.813496,14.0462242 241.791992,14 C237.816711,14.0462242 234.500176,14.9938059 231.842285,16.8427734 C229.13817,18.6686289 227.173671,20.7486862 225.94873,23.0830078 C225.186031,24.3079488 224.619793,25.9142153 224.25,27.9018555 C223.903318,29.8894956 223.72998,33.8184928 223.72998,39.6889648 Z M231.426269,39.6889648 C231.426269,34.7198645 231.611163,31.3339934 231.980957,29.53125 C232.304526,27.820955 232.963211,26.4226942 233.957031,25.3364258 C234.765954,24.2963815 235.829094,23.429691 237.146484,22.7363281 C238.440761,22.0660774 239.989248,21.7078453 241.791992,21.6616211 C243.617847,21.7078453 245.201002,22.0660774 246.541503,22.7363281 C247.812669,23.429691 248.829586,24.2963815 249.592285,25.3364258 C250.586105,26.4226942 251.267901,27.820955 251.637695,29.53125 C251.984376,31.3339934 252.157714,34.7198645 252.157714,39.6889648 C252.157714,44.6580652 251.984376,48.0208246 251.637695,49.7773438 C251.267901,51.5338629 250.586105,52.9552355 249.592285,54.0415039 C248.829586,55.0815482 247.812669,55.925127 246.541503,56.5722656 C245.201002,57.3349648 243.617847,57.7163086 241.791992,57.7163086 C239.989248,57.7163086 238.440761,57.3349648 237.146484,56.5722656 C235.829094,55.925127 234.765954,55.0815482 233.957031,54.0415039 C232.963211,52.9552355 232.304526,51.5338629 231.980957,49.7773438 C231.611163,48.0208246 231.426269,44.6580652 231.426269,39.6889648 Z" id="形状结合" fill="#DCDCDC" fill-rule="nonzero"></path>
    </g>
</svg>

<svg width="275" height="80" xmlns="http://www.w3.org/2000/svg"><path d="M8.974 0h257.052c3.12 0 4.252.325 5.393.935a6.36 6.36 0 012.646 2.646c.61 1.14.935 2.272.935 5.393v62.052c0 3.12-.325 4.252-.935 5.393a6.36 6.36 0 01-2.646 2.646c-1.14.61-2.272.935-5.393.935H8.974c-3.12 0-4.252-.325-5.393-.935a6.36 6.36 0 01-2.646-2.646C.325 75.279 0 74.147 0 71.026V8.974c0-3.12.325-4.252.935-5.393A6.36 6.36 0 013.581.935C4.721.325 5.853 0 8.974 0zM16 58.583v6.379h32.276v-7.246H25.29l22.985-37.545v-5.755H16.9v6.83h22.015L16 58.583zm42.503-44.167v50.546h32.276v-7.246H66.164V42.878h21.01v-6.795h-21.01V21.662H90.78v-7.246H58.503zM108.25 37.99V21.662h11.06c2.08-.047 3.905.427 5.477 1.421a6.367 6.367 0 012.427 2.461c.554 1.156.832 2.577.832 4.265 0 2.033-.682 3.882-2.046 5.546-1.433 1.71-3.57 2.589-6.413 2.635H108.25zm-7.661-23.574v50.546h7.661V45.236H119.9c5.2-.093 9.152-1.757 11.856-4.992 2.635-3.074 3.952-6.483 3.952-10.227 0-2.774-.52-5.177-1.56-7.211-.994-2.104-2.288-3.721-3.883-4.854-1.895-1.502-3.767-2.496-5.616-2.981a29.28 29.28 0 00-5.755-.555H100.59zm44.687 0v50.546h32.275v-7.246h-24.614V42.878h21.009v-6.795h-21.009V21.662h24.614v-7.246h-32.275zm50.65 6.83v43.716h7.696V21.246h13.832v-6.83h-35.361v6.83h13.832zm27.803 18.443c0 5.778.173 9.684.52 11.718.185 1.086.416 1.987.693 2.704.3.693.636 1.421 1.006 2.184 1.225 2.334 3.19 4.391 5.893 6.17 2.658 1.85 5.975 2.82 9.95 2.913 4.021-.093 7.373-1.063 10.054-2.912 2.658-1.78 4.576-3.837 5.755-6.171.855-1.225 1.444-2.854 1.768-4.888.3-2.034.45-5.94.45-11.718 0-5.87-.15-9.8-.45-11.787-.324-1.988-.913-3.594-1.768-4.819-1.18-2.334-3.097-4.414-5.755-6.24-2.681-1.85-6.033-2.797-10.054-2.843-3.975.046-7.292.994-9.95 2.843-2.704 1.826-4.668 3.906-5.893 6.24-.763 1.225-1.33 2.831-1.699 4.819-.347 1.987-.52 5.916-.52 11.787zm7.696 0c0-4.97.185-8.355.555-10.158.324-1.71.982-3.108 1.976-4.195.809-1.04 1.872-1.906 3.19-2.6 1.294-.67 2.842-1.028 4.645-1.074 1.826.046 3.409.404 4.75 1.074 1.27.694 2.288 1.56 3.05 2.6.994 1.087 1.676 2.485 2.046 4.195.346 1.803.52 5.189.52 10.158 0 4.97-.174 8.332-.52 10.088-.37 1.757-1.052 3.178-2.046 4.265-.762 1.04-1.78 1.883-3.05 2.53-1.341.763-2.924 1.144-4.75 1.144-1.803 0-3.351-.381-4.646-1.144-1.317-.647-2.38-1.49-3.189-2.53-.994-1.087-1.652-2.508-1.976-4.265-.37-1.756-.555-5.119-.555-10.088z" fill="#DCDCDC" fill-rule="nonzero"/></svg>
